public/images/logos/iro.svg

<svg width="498" height="36" viewBox="0 0 498 36" fill="none" xmlns="http://www.w3.org/2000/svg">
<path d="M3.51 1.02016H0V34.9502H3.51V1.02016Z" fill="black"/>
<path d="M3.52 1.01016H0V34.9402H3.52V1.01016Z" fill="black"/>
<path d="M63.58 34.9502V1.02016H82.07C89.42 1.02016 93.1 4.08016 93.1 10.1902C93.1 12.0802 92.55 13.7802 91.44 15.2702C90.23 16.8902 88.57 17.9302 86.45 18.4102V18.5002C88.7 18.8502 90.27 19.8102 91.16 21.4002C91.92 22.7302 92.36 24.9002 92.49 27.9002C92.68 32.0202 93.08 34.3702 93.68 34.9402H89.88C89.34 34.3102 89.04 31.9902 88.98 28.0002C88.95 25.0202 88.31 22.9402 87.06 21.7702C85.81 20.5902 83.71 20.0102 80.76 20.0102H67.12V34.9302H63.6L63.58 34.9502ZM67.1 4.25016V16.8002H81.97C86.85 16.8002 89.29 14.5902 89.29 10.1902C89.29 6.23016 86.96 4.25016 82.3 4.25016H67.09H67.1Z" fill="black"/>
<path d="M63.58 34.9502V1.02016H82.07C89.42 1.02016 93.1 4.08016 93.1 10.1902C93.1 12.0802 92.55 13.7802 91.44 15.2702C90.23 16.8902 88.57 17.9302 86.45 18.4102V18.5002C88.7 18.8502 90.27 19.8102 91.16 21.4002C91.92 22.7302 92.36 24.9002 92.49 27.9002C92.68 32.0202 93.08 34.3702 93.68 34.9402H89.88C89.34 34.3102 89.04 31.9902 88.98 28.0002C88.95 25.0202 88.31 22.9402 87.06 21.7702C85.81 20.5902 83.71 20.0102 80.76 20.0102H67.12V34.9302H63.6L63.58 34.9502ZM67.1 4.25016V16.8002H81.97C86.85 16.8002 89.29 14.5902 89.29 10.1902C89.29 6.23016 86.96 4.25016 82.3 4.25016H67.09H67.1Z" fill="black"/>
<path d="M136.53 17.9802C136.53 12.2802 138.4 7.82016 142.14 4.58016C145.53 1.63016 149.81 0.160156 154.97 0.160156C160.13 0.160156 164.41 1.64016 167.8 4.58016C171.54 7.81016 173.41 12.2802 173.41 17.9802C173.41 23.6802 171.54 28.1502 167.8 31.3902C164.41 34.3402 160.13 35.8102 154.97 35.8102C149.81 35.8102 145.53 34.3402 142.14 31.3902C138.4 28.1602 136.53 23.6902 136.53 17.9802ZM140.33 17.9802C140.33 22.7702 141.83 26.4802 144.85 29.1002C147.51 31.4102 150.88 32.5702 154.97 32.5702C159.06 32.5702 162.43 31.4102 165.09 29.1002C168.1 26.4702 169.6 22.7602 169.6 17.9802C169.6 13.2002 168.1 9.50016 165.09 6.87016C162.43 4.56016 159.05 3.40016 154.97 3.40016C150.89 3.40016 147.51 4.56016 144.85 6.87016C141.84 9.50016 140.33 13.2002 140.33 17.9802Z" fill="black"/>
<path d="M136.53 17.9802C136.53 12.2802 138.4 7.82016 142.14 4.58016C145.53 1.63016 149.81 0.160156 154.97 0.160156C160.13 0.160156 164.41 1.64016 167.8 4.58016C171.54 7.81016 173.41 12.2802 173.41 17.9802C173.41 23.6802 171.54 28.1502 167.8 31.3902C164.41 34.3402 160.13 35.8102 154.97 35.8102C149.81 35.8102 145.53 34.3402 142.14 31.3902C138.4 28.1602 136.53 23.6902 136.53 17.9802ZM140.33 17.9802C140.33 22.7702 141.83 26.4802 144.85 29.1002C147.51 31.4102 150.88 32.5702 154.97 32.5702C159.06 32.5702 162.43 31.4102 165.09 29.1002C168.1 26.4702 169.6 22.7602 169.6 17.9802C169.6 13.2002 168.1 9.50016 165.09 6.87016C162.43 4.56016 159.05 3.40016 154.97 3.40016C150.89 3.40016 147.51 4.56016 144.85 6.87016C141.84 9.50016 140.33 13.2002 140.33 17.9802Z" fill="black"/>
<path d="M210.23 32.8502C210.23 34.0002 209.3 34.9402 208.14 34.9402C206.98 34.9402 206.05 34.0002 206.05 32.8502C206.05 31.7002 206.98 30.7602 208.14 30.7602C209.3 30.7602 210.23 31.6902 210.23 32.8502Z" fill="black"/>
<path d="M241.99 35.1002V1.16016H255.87C259.42 1.16016 262.02 1.87016 263.67 3.28016C265.32 4.69016 266.17 6.88016 266.24 9.86016C266.3 12.1402 265.7 14.0402 264.43 15.5402C263.16 17.0502 261.34 18.0702 258.96 18.6102V18.7002C260.39 18.8902 261.54 19.2302 262.43 19.7202C263.32 20.2102 264 20.8502 264.47 21.6502C264.94 22.4502 265.26 23.3802 265.42 24.4502C265.58 25.5302 265.66 26.7502 265.66 28.1102C265.66 28.5802 265.68 29.1802 265.71 29.8902C265.74 30.6002 265.79 31.3102 265.85 32.0102C265.91 32.7102 265.99 33.3402 266.09 33.9102C266.19 34.4802 266.31 34.8802 266.47 35.1002H265.43C265.27 34.7502 265.14 34.2802 265.05 33.7002C264.96 33.1102 264.88 32.4902 264.84 31.8202C264.79 31.1502 264.76 30.4802 264.75 29.8002C264.73 29.1202 264.73 28.5102 264.73 27.9702C264.73 26.5802 264.63 25.3302 264.42 24.2402C264.21 23.1502 263.79 22.2302 263.16 21.4802C262.53 20.7402 261.62 20.1702 260.45 19.7702C259.28 19.3702 257.71 19.1802 255.74 19.1802H242.95V35.1002H241.99ZM255.63 18.2302C256.9 18.2302 258.11 18.0702 259.27 17.7502C260.43 17.4302 261.45 16.9302 262.34 16.2302C263.23 15.5302 263.94 14.6502 264.48 13.5902C265.02 12.5302 265.29 11.2502 265.29 9.76016C265.26 7.35016 264.53 5.47016 263.1 4.13016C261.67 2.78016 259.35 2.11016 256.11 2.11016H242.94V18.2202H255.63V18.2302Z" fill="#1D1D1B"/>
<path d="M320.18 34.1502V35.1002H297.46V1.16016H319.99V2.11016H298.41V16.9402H318.71V17.8902H298.41V34.1502H320.18Z" fill="#1D1D1B"/>
<path d="M350.84 1.16016L374.04 33.9102H374.14V1.16016H375.09V35.1002H373.66L350.46 2.35016H350.37V35.1002H349.42V1.16016H350.85H350.84Z" fill="#1D1D1B"/>
<path d="M429.37 34.1502V35.1002H406.65V1.16016H429.18V2.11016H407.6V16.9402H427.9V17.8902H407.6V34.1502H429.37Z" fill="#1D1D1B"/>
<path d="M497.87 1.16016L488.03 35.1002H486.75L476.77 2.35016H476.67L466.88 35.1002H465.6L455.62 1.16016H456.57L466.17 33.9102H466.26L476.05 1.16016H477.43L487.36 33.9102H487.46L496.92 1.16016H497.87Z" fill="#1D1D1B"/>
</svg>

<svg xmlns="http://www.w3.org/2000/svg" width="498" height="36" fill="none"><path fill="#000" d="M3.51 1.02H0v33.93h3.51V1.02Z"/><path fill="#000" d="M3.52 1.01H0v33.93h3.52V1.01ZM63.58 34.95V1.02h18.49c7.35 0 11.03 3.06 11.03 9.17 0 1.89-.55 3.59-1.66 5.08-1.21 1.62-2.87 2.66-4.99 3.14v.09c2.25.35 3.82 1.31 4.71 2.9.76 1.33 1.2 3.5 1.33 6.5.19 4.12.59 6.47 1.19 7.04h-3.8c-.54-.63-.84-2.95-.9-6.94-.03-2.98-.67-5.06-1.92-6.23-1.25-1.18-3.35-1.76-6.3-1.76H67.12v14.92H63.6l-.02.02Zm3.52-30.7V16.8h14.87c4.88 0 7.32-2.21 7.32-6.61 0-3.96-2.33-5.94-6.99-5.94H67.09h.01Z"/><path fill="#000" d="M63.58 34.95V1.02h18.49c7.35 0 11.03 3.06 11.03 9.17 0 1.89-.55 3.59-1.66 5.08-1.21 1.62-2.87 2.66-4.99 3.14v.09c2.25.35 3.82 1.31 4.71 2.9.76 1.33 1.2 3.5 1.33 6.5.19 4.12.59 6.47 1.19 7.04h-3.8c-.54-.63-.84-2.95-.9-6.94-.03-2.98-.67-5.06-1.92-6.23-1.25-1.18-3.35-1.76-6.3-1.76H67.12v14.92H63.6l-.02.02Zm3.52-30.7V16.8h14.87c4.88 0 7.32-2.21 7.32-6.61 0-3.96-2.33-5.94-6.99-5.94H67.09h.01ZM136.53 17.98c0-5.7 1.87-10.16 5.61-13.4 3.39-2.95 7.67-4.42 12.83-4.42s9.44 1.48 12.83 4.42c3.74 3.23 5.61 7.7 5.61 13.4s-1.87 10.17-5.61 13.41c-3.39 2.95-7.67 4.42-12.83 4.42s-9.44-1.47-12.83-4.42c-3.74-3.23-5.61-7.7-5.61-13.41Zm3.8 0c0 4.79 1.5 8.5 4.52 11.12 2.66 2.31 6.03 3.47 10.12 3.47 4.09 0 7.46-1.16 10.12-3.47 3.01-2.63 4.51-6.34 4.51-11.12 0-4.78-1.5-8.48-4.51-11.11-2.66-2.31-6.04-3.47-10.12-3.47-4.08 0-7.46 1.16-10.12 3.47-3.01 2.63-4.52 6.33-4.52 11.11Z"/><path fill="#000" d="M136.53 17.98c0-5.7 1.87-10.16 5.61-13.4 3.39-2.95 7.67-4.42 12.83-4.42s9.44 1.48 12.83 4.42c3.74 3.23 5.61 7.7 5.61 13.4s-1.87 10.17-5.61 13.41c-3.39 2.95-7.67 4.42-12.83 4.42s-9.44-1.47-12.83-4.42c-3.74-3.23-5.61-7.7-5.61-13.41Zm3.8 0c0 4.79 1.5 8.5 4.52 11.12 2.66 2.31 6.03 3.47 10.12 3.47 4.09 0 7.46-1.16 10.12-3.47 3.01-2.63 4.51-6.34 4.51-11.12 0-4.78-1.5-8.48-4.51-11.11-2.66-2.31-6.04-3.47-10.12-3.47-4.08 0-7.46 1.16-10.12 3.47-3.01 2.63-4.52 6.33-4.52 11.11ZM210.23 32.85a2.09 2.09 0 1 1-4.18 0c0-1.15.93-2.09 2.09-2.09 1.16 0 2.09.93 2.09 2.09Z"/><path fill="#1D1D1B" d="M241.99 35.1V1.16h13.88c3.55 0 6.15.71 7.8 2.12 1.65 1.41 2.5 3.6 2.57 6.58.06 2.28-.54 4.18-1.81 5.68-1.27 1.51-3.09 2.53-5.47 3.07v.09c1.43.19 2.58.53 3.47 1.02.89.49 1.57 1.13 2.04 1.93s.79 1.73.95 2.8c.16 1.08.24 2.3.24 3.66a45 45 0 0 0 .05 1.78c.03.71.08 1.42.14 2.12.06.7.14 1.33.24 1.9.1.57.22.97.38 1.19h-1.04c-.16-.35-.29-.82-.38-1.4-.09-.59-.17-1.21-.21-1.88-.05-.67-.08-1.34-.09-2.02-.02-.68-.02-1.29-.02-1.83 0-1.39-.1-2.64-.31-3.73-.21-1.09-.63-2.01-1.26-2.76-.63-.74-1.54-1.31-2.71-1.71-1.17-.4-2.74-.59-4.71-.59h-12.79V35.1h-.96Zm13.64-16.87c1.27 0 2.48-.16 3.64-.48 1.16-.32 2.18-.82 3.07-1.52.89-.7 1.6-1.58 2.14-2.64s.81-2.34.81-3.83c-.03-2.41-.76-4.29-2.19-5.63-1.43-1.35-3.75-2.02-6.99-2.02h-13.17v16.11h12.69v.01ZM320.18 34.15v.95h-22.72V1.16h22.53v.95h-21.58v14.83h20.3v.95h-20.3v16.26h21.77ZM350.84 1.16l23.2 32.75h.1V1.16h.95V35.1h-1.43l-23.2-32.75h-.09V35.1h-.95V1.16h1.43-.01ZM429.37 34.15v.95h-22.72V1.16h22.53v.95H407.6v14.83h20.3v.95h-20.3v16.26h21.77ZM497.87 1.16l-9.84 33.94h-1.28l-9.98-32.75h-.1l-9.79 32.75h-1.28l-9.98-33.94h.95l9.6 32.75h.09l9.79-32.75h1.38l9.93 32.75h.1l9.46-32.75h.95Z"/></svg>
